X:1
T:Title
%%score 1 2 3 4
L:1/8
M:2/2
K:F
V:1 treble nm="Part_1"
V:2 treble-8 nm="Part_2"
V:3 treble-8 nm="Part_3"
V:4 bass nm="Part_4"
V:1
 F8- | F8 | G8 | A8 | A4 G4 | F4 G4- | G2 F2 F4- | F4 E4 | F8 | z4 A4 | A8 | G8 | A4 A4 | c4 c3 B | %14
 A4 G4 | A4 B4- | B4 A4 | G8 | z4 F4 | F4 G2 A2- | A2 GF A2 G2- | GF F4 E2 | F8 | z8 | z8 | z8 | %26
 A8 | A4 G4 | B8 | A4 G4- | G4 F4- | F4 E4 | F8- | F8 | z8 | z8 | z8 | A8 | G8 | A4 A4- | %40
 A4 (3:2:1c6- | (3:2:2c2 B4 A4 | G4 A4- | A2 G2 G4- | G4 ^F4 | G8 | z4 F4 | G4 A4- | A4 G4 | %49
 A6 GF | E4 F4- | F4 E4 | F8 ||[M:2/2] F8 | E4 F4 | C4 c4- | c2 B2 A2 G2 | F4 A4- | A2 G2 F2 E2 | %59
 D4 D4 | G8 | !fermata!F8 | F4 A4 | G4 F4 | F4 F4 | A4 A4 | A6 A2 | c4 c4 | d8 | c8 | z4 c4 | %71
 c4 c4- | c2 B2 A2 G2 | A4 A4 | _B6 A2 | G4 F4 | E4 F4- | F4 E4 | F8 |] %79
V:2
 c8 | c4 d4 | B4 c4 | d8 | c4 e4 | f4 _e4- | e2 d2 c4- | c4 c4 | A6 B2 | c4 c4 | A6 B2 | c8 | %12
 c4 f4- | f2 ed e4 | f2 d2 _e4 | c4 B2 c2 | d2 e2 f4 | d8 | d4 d4 | c4 d2 e2 | c2 fedc d2- | %21
 d2 c4 B2 | c8 | z4 g4- | g2 f2 f4- | f4 e4 | f8 | f4 d4 | g4 f4- | f4 d4 | _e4 c4- | c4 c4 | %32
 A6 B2 | c4 F4 | f4 d4- | d2 _e2 f2 e2- | e2 d4 c2 | d8- | d8 | d8 | d4 e4- | e4 d4 | B4 f4- | %43
 f2 e2 c4 | d8 | B4 c4 | d8 | G2 c3 BAG | F4 G4 | z4 c4- | c2 BA B4 | !fermata!c8- | c8 || %53
[M:2/2] c8 | c4 c4 | f4 f4 | e4 a4- | a2 g2 f2 e2 | d4 f4- | f2 d2 d4- | d4 c4 | !fermata!d8 | c8 | %63
 c4 c4 | d8 | c4 c4 | f6 f2 | f4 f4 | f8 | f8 | z4 f4 | f4 f4 | e4 e4 | f4 c4 | f6 e2 | d4 c4- | %76
 c4 B4 | c8 | c8 |] %79
V:3
 F6 G2 | A4 B4- | B2 A2 G4 | F6 G2 | A2 B2 c4 | F4 B4- | B4 A4 | G8 | F8- | F8 | z4 F4 | G4 c4- | %12
 c2 B2 A4 | G2 c3 B A2- | A2 GF G4 | F8- | F8 | G8 | A8 | A4 B2 A2 | c4 F2 B2- | B2 A2 G4 | F8 | %23
 C4 G4 | _E4 F4 | C8 | c8- | c4 B4 | d8 | c4 B4- | B4 A4 | G8 | F8- | F8 | z4 B4- | B2 AG A2 c2 | %36
 B2 A4 G2 | A8 | B8 | A6 G2 | F4 G4 | E4 F4 | G4 c4- | c2 B2 G4 | A8 | z4 G4 | A4 B4 | c4 A4- | %48
 A2 GF B4 | A8 | G4 F4 | G8 | F8 ||[M:2/2] F8 | G4 A4 | A4 A4 | A4 A4 | A4 A4 | A4 B4- | B4 A4 | %60
 G8 | !fermata!A8 | F8 | G4 A4 | A4 A4 | A4 A4 | A6 A2 | A4 A4 | B8 | A8 | z4 A4 | A4 A4 | c6 B2 | %73
 A2 G2 F4- | F4 B4- | B4 A4 | G4 F4 | G8 | F8 |] %79
V:4
[K:Bb] F,8- | F,4 B,,4 | E,8 | D,6 E,2 | F,4 C,4 | D,4 E,4- | E,4 F,4 | C,8 | C6 B,2 | %9
 A,2 G,2 F,4- | F,2 E,2 D,2 F,2 | C,8 | F,8 | C,8 | F,4 E,4 | F,4 B,,4- | B,,2 C,2 D,4 | G,,8 | %18
 D,8 | z8 | z8 | z8 | A,4 A,4 | G,4 B,4- | B,4 A,4 | G,8 | F,8 | F,4 G,4- | G,2 F,E, D,2 E,2 | %29
 F,4 G,4 | E,4 F,4 | C,8 | C8 | A,8 | F,4 G,4- | G,2 F,E, D,2 C,2 | D,2 F,2 E,4 | D,8 | z8 | D,8- | %40
 D,4 C,4- | C,4 D,4 | E,4 F,4- | F,2 G,2 E,4 | D,8 | E,8 | D,8 | C,4 F,4 | D,4 E,4 | F,8 | %50
 C,4 D,4 | C,8 | F,8 ||[K:F][M:2/2] F,8 | C,4 F,4- | F,4 F,4 | C,4 C4- | C2 B,2 A,2 G,2 | %58
 F,2 E,2 D,2 C,2 | B,,4 F,4 | E,8 | F,4 !fermata!D,4 | F,8 | E,4 F,4 | D,4 D,4 | F,4 F,4 | %66
 F,6 F,2 | F,4 F,4 | B,,8 | F,8 | z4 F,4 | F,4 F,4 | C,4 C,4 | F,6 E,2 | D,2 C,2 B,,4- | B,,4 F,4 | %76
 C,4 D,4 | C,8 | F,8 |] %79

